brandFactory_export/3.Masa/Emergencia cruz circulo salud_3Masa.svg

<?xml version="1.0" encoding="UTF-8"?>
<svg width="24px" height="24px" viewBox="0 0 24 24" version="1.1" xmlns="http://www.w3.org/2000/svg" xmlns:xlink="http://www.w3.org/1999/xlink">
    <title>3.Masa/Emergencia cruz circulo salud_3Masa</title>
    <g id="Symbols" stroke="none" stroke-width="1" fill="none" fill-rule="evenodd">
        <g id="3.Masa/Emergencia-cruz-circulo-salud_3Masa" fill="#5CB615" fill-rule="nonzero">
            <path d="M12.3058824,0.0134453782 C14.6184874,0.0672268908 23.6235294,0.981512605 23.6235294,11.8453782 C23.6235294,22.7294118 14.6084034,23.5764706 12.3529412,23.6168067 C12.1411765,23.6235294 11.8991597,23.6235294 11.6571429,23.6235294 C11.5294118,23.6235294 11.3983193,23.6235294 11.2739496,23.6201681 C8.90084034,23.5865546 0.00336134454,22.7294118 0.00336134454,11.7747899 C0.00336134454,0.83697479 8.82016807,0.0235294118 11.189916,0.00336134454 C11.2605042,0.00336134454 11.3277311,0 11.4016807,0 C11.707563,0 12.0302521,0.00672268908 12.3058824,0.0134453782 Z M18.1310924,13.5361345 L14.2655462,13.5361345 C14.0705882,13.5361345 13.8823529,13.6134454 13.7411765,13.7546218 C13.6033613,13.892437 13.5260504,14.0806723 13.5260504,14.2756303 L13.5361345,18.1378151 C13.5361345,18.3193277 13.4117647,18.4403361 13.3714286,18.4470588 L10.2823529,18.4470588 C10.2386555,18.4369748 10.1142857,18.3193277 10.1142857,18.1378151 L10.1142857,14.2722689 C10.1142857,13.8655462 9.78487395,13.5327731 9.37478992,13.5327731 L5.5092437,13.5327731 C5.3210084,13.5327731 5.20336134,13.4084034 5.19663866,13.3680672 L5.19663866,10.2890756 C5.20672269,10.2453782 5.32436975,10.1210084 5.5092437,10.1210084 L9.37478992,10.1210084 C9.78151261,10.1210084 10.1142857,9.79159664 10.1142857,9.38151261 L10.1142857,5.51596639 C10.1142857,5.34789916 10.2352941,5.21008403 10.2789916,5.19663866 L13.3478992,5.19327731 C13.4016807,5.21008403 13.5260504,5.34789916 13.5260504,5.51596639 L13.5260504,9.37815126 C13.5260504,9.78487395 13.8554622,10.1176471 14.2655462,10.1176471 L18.1310924,10.1176471 C18.292437,10.1176471 18.4302521,10.2352941 18.4504202,10.292437 L18.4537815,13.3579832 C18.4369748,13.4117647 18.2991597,13.5361345 18.1310924,13.5361345 Z M18.1310924,8.64201681 L15.0016807,8.64201681 L15.0016807,5.52605042 C15.0016807,4.56806723 14.2352941,3.73109244 13.3613445,3.73109244 L10.2789916,3.73109244 C9.38823529,3.73109244 8.63865546,4.55462185 8.63865546,5.52605042 L8.63865546,8.65210084 L5.51260504,8.65210084 C4.54117647,8.65210084 3.72436975,9.40168067 3.72436975,10.292437 L3.72436975,13.3747899 C3.72436975,14.2621849 4.54117647,15.0151261 5.51260504,15.0151261 L8.63865546,15.0151261 L8.63865546,18.1411765 C8.63865546,19.1092437 9.39159664,19.9260504 10.2789916,19.9260504 L13.3714286,19.9260504 C14.2621849,19.9260504 15.0117647,19.1092437 15.0117647,18.1378151 L15.005042,15.0151261 L18.1310924,15.0151261 C19.0890756,15.0151261 19.9294118,14.2487395 19.9294118,13.3747899 L19.9294118,10.2823529 C19.9294118,9.40840336 19.0890756,8.64201681 18.1310924,8.64201681 Z" id="Emergencia-cruz-circulo-salud_3Masa"></path>
        </g>
    </g>
</svg>

<svg width="24" height="24" viewBox="0 0 24 24" xmlns="http://www.w3.org/2000/svg"><path d="M12.306.013c2.312.054 11.318.969 11.318 11.832 0 10.884-9.016 11.731-11.271 11.772-.212.007-.454.007-.696.007-.128 0-.259 0-.383-.004C8.9 23.587.004 22.73.004 11.775.003.837 8.82.024 11.19.003c.07 0 .138-.003.212-.003.306 0 .628.007.904.013zm5.825 13.523h-3.865a.74.74 0 00-.74.74l.01 3.862c0 .181-.124.302-.165.31h-3.089c-.043-.011-.168-.129-.168-.31v-3.866a.74.74 0 00-.74-.74H5.51c-.188 0-.306-.124-.312-.164V10.29c.01-.044.127-.168.312-.168h3.866a.74.74 0 00.74-.74V5.517c0-.168.12-.306.164-.32l3.069-.003c.054.017.178.155.178.323v3.862c0 .407.33.74.74.74h3.865c.161 0 .3.117.32.174l.003 3.066c-.017.054-.155.178-.323.178zm0-4.894h-3.13V5.526c0-.958-.766-1.795-1.64-1.795H10.28c-.89 0-1.64.824-1.64 1.795v3.126H5.513c-.972 0-1.789.75-1.789 1.64v3.083c0 .887.817 1.64 1.789 1.64h3.126v3.126c0 .968.753 1.785 1.64 1.785h3.092c.891 0 1.64-.817 1.64-1.788l-.006-3.123h3.126c.958 0 1.798-.766 1.798-1.64v-3.093c0-.874-.84-1.64-1.798-1.64z" fill="#5CB615" fill-rule="nonzero"/></svg>
